icons/svg/shields/h_topo_cellar_entrance_shield.svg

<?xml version="1.0" encoding="UTF-8" standalone="no"?>
<!-- Created with Inkscape (http://www.inkscape.org/) -->

<svg
   xmlns:dc="http://purl.org/dc/elements/1.1/"
   xmlns:cc="http://creativecommons.org/ns#"
   xmlns:rdf="http://www.w3.org/1999/02/22-rdf-syntax-ns#"
   xmlns:svg="http://www.w3.org/2000/svg"
   xmlns="http://www.w3.org/2000/svg"
   xmlns:sodipodi="http://sodipodi.sourceforge.net/DTD/sodipodi-0.dtd"
   xmlns:inkscape="http://www.inkscape.org/namespaces/inkscape"
   version="1.0"
   width="16"
   height="16"
   id="svg2"
   sodipodi:version="0.32"
   inkscape:version="0.92.3 (2405546, 2018-03-11)"
   sodipodi:docname="h_topo_cellar_entrance_shield.svg"
   inkscape:output_extension="org.inkscape.output.svg.inkscape">
  <metadata
     id="metadata10">
    <rdf:RDF>
      <cc:Work
         rdf:about="">
        <dc:format>image/svg+xml</dc:format>
        <dc:type
           rdf:resource="http://purl.org/dc/dcmitype/StillImage" />
        <cc:license
           rdf:resource="http://web.resource.org/cc/PublicDomain" />
        <dc:language>en</dc:language>
        <dc:title />
      </cc:Work>
    </rdf:RDF>
  </metadata>
  <sodipodi:namedview
     inkscape:window-height="1006"
     inkscape:window-width="1920"
     inkscape:pageshadow="2"
     inkscape:pageopacity="0.0"
     guidetolerance="10.0"
     gridtolerance="10.0"
     objecttolerance="10.0"
     borderopacity="1.0"
     bordercolor="#666666"
     pagecolor="#ffffff"
     id="base"
     showgrid="false"
     inkscape:zoom="18"
     inkscape:cx="-17.875542"
     inkscape:cy="6.778201"
     inkscape:window-x="1920"
     inkscape:window-y="0"
     inkscape:current-layer="svg2"
     inkscape:window-maximized="1" />
  <defs
     id="defs4">
    <inkscape:perspective
       sodipodi:type="inkscape:persp3d"
       inkscape:vp_x="0 : 290 : 1"
       inkscape:vp_y="0 : 1000 : 0"
       inkscape:vp_z="580 : 290 : 1"
       inkscape:persp3d-origin="290 : 193.33333 : 1"
       id="perspective12" />
    <style
       type="text/css"
       id="style6">
   
    .fil0 {fill:#EF7900}
   
  </style>
    <inkscape:perspective
       id="perspective6807"
       inkscape:persp3d-origin="29.116032 : 19.410688 : 1"
       inkscape:vp_z="58.232063 : 29.116032 : 1"
       inkscape:vp_y="0 : 1000 : 0"
       inkscape:vp_x="0 : 29.116032 : 1"
       sodipodi:type="inkscape:persp3d" />
    <inkscape:perspective
       id="perspective6954"
       inkscape:persp3d-origin="290 : 193.33333 : 1"
       inkscape:vp_z="580 : 290 : 1"
       inkscape:vp_y="0 : 1000 : 0"
       inkscape:vp_x="0 : 290 : 1"
       sodipodi:type="inkscape:persp3d" />
    <inkscape:perspective
       id="perspective2541"
       inkscape:persp3d-origin="240 : 160 : 1"
       inkscape:vp_z="480 : 240 : 1"
       inkscape:vp_y="0 : 1000 : 0"
       inkscape:vp_x="0 : 240 : 1"
       sodipodi:type="inkscape:persp3d" />
    <inkscape:perspective
       id="perspective2750"
       inkscape:persp3d-origin="215 : 143.33333 : 1"
       inkscape:vp_z="430 : 215 : 1"
       inkscape:vp_y="0 : 1000 : 0"
       inkscape:vp_x="0 : 215 : 1"
       sodipodi:type="inkscape:persp3d" />
    <inkscape:perspective
       id="perspective3730"
       inkscape:persp3d-origin="88.929146 : 101.19778 : 1"
       inkscape:vp_z="177.85829 : 151.79668 : 1"
       inkscape:vp_y="0 : 1000 : 0"
       inkscape:vp_x="0 : 151.79668 : 1"
       sodipodi:type="inkscape:persp3d" />
  </defs>
  <path
     sodipodi:type="inkscape:offset"
     inkscape:radius="1.2311735"
     inkscape:original="M 8.0351562 2.9726562 C 6.2873431 2.9726562 4.7138969 3.5419553 3.3808594 4.5546875 C 2.1501677 5.4896658 2.2929687 6.4609375 2.2929688 6.4609375 L 2.2929688 6.4726562 L 2.2929688 13.027344 L 5.3007812 13.027344 L 5.3007812 6.5 C 5.301443 6.487197 5.333026 5.8762046 5.6816406 5.265625 C 6.0339437 4.6485854 6.62599 4.0527344 8.0351562 4.0527344 C 9.4443227 4.0527344 9.9910458 4.6401249 10.3125 5.25 C 10.633956 5.8598748 10.638672 6.4804688 10.638672 6.4804688 L 10.638672 6.4824219 L 10.638672 13.027344 L 13.712891 13.027344 L 13.712891 6.4863281 C 13.712891 6.4863281 13.706486 5.7237261 12.574219 4.7460938 C 11.363503 3.700778 9.7829693 2.9726563 8.0351562 2.9726562 z "
     style="color:#000000;font-style:normal;font-variant:normal;font-weight:normal;font-stretch:normal;font-size:medium;line-height:normal;font-family:sans-serif;font-variant-ligatures:normal;font-variant-position:normal;font-variant-caps:normal;font-variant-numeric:normal;font-variant-alternates:normal;font-feature-settings:normal;text-indent:0;text-align:start;text-decoration:none;text-decoration-line:none;text-decoration-style:solid;text-decoration-color:#000000;letter-spacing:normal;word-spacing:normal;text-transform:none;writing-mode:lr-tb;direction:ltr;text-orientation:mixed;dominant-baseline:auto;baseline-shift:baseline;text-anchor:start;white-space:normal;shape-padding:0;clip-rule:nonzero;display:inline;overflow:visible;visibility:visible;opacity:0.819;isolation:auto;mix-blend-mode:normal;color-interpolation:sRGB;color-interpolation-filters:linearRGB;solid-color:#000000;solid-opacity:1;vector-effect:none;fill:#ffffff;fill-opacity:1;fill-rule:evenodd;stroke:none;stroke-width:4.12867511;stroke-linecap:butt;stroke-linejoin:miter;stroke-miterlimit:4;stroke-dasharray:none;stroke-dashoffset:0;stroke-opacity:1;color-rendering:auto;image-rendering:auto;shape-rendering:auto;text-rendering:auto;enable-background:accumulate;font-variant-east_asian:normal;marker:none"
     id="path4144-3"
     d="m 8.0351562,1.7421875 c -2.0151589,0 -3.8707768,0.6714404 -5.3984374,1.8320313 C 1.839588,4.1798131 1.3974166,4.8889948 1.2050781,5.4746094 1.0127396,6.060224 1.0742187,6.640625 1.0742188,6.640625 L 1.0625,6.4726562 v 6.5546878 a 1.2312966,1.2312966 0 0 0 1.2304688,1.230468 H 5.3007812 A 1.2312966,1.2312966 0 0 0 6.53125,13.027344 V 6.5644531 c 6.612e-4,-0.012791 0.029614,-0.3562389 0.21875,-0.6875 0.227037,-0.3976429 0.2230492,-0.59375 1.2851562,-0.59375 0.5335177,0 0.7634274,0.1005398 0.8886719,0.1796875 0.1252445,0.079148 0.196325,0.1668553 0.2988281,0.3613282 0.1631324,0.309499 0.1855469,0.6660156 0.1855469,0.6660156 v 6.5371096 a 1.2312966,1.2312966 0 0 0 1.2304689,1.230468 h 3.074219 a 1.2312966,1.2312966 0 0 0 1.230468,-1.230468 V 6.4863281 a 1.2312966,1.2312966 0 0 0 0,-0.00977 c 0,0 -0.03544,-0.5240896 -0.255859,-1.0058594 C 14.467085,4.9889334 14.064028,4.4060069 13.378906,3.8144531 11.98107,2.6075801 10.124899,1.7421876 8.0351562,1.7421875 Z" />
</svg>

<svg width="16" height="16" viewBox="0 0 16 16" fill="none" xmlns="http://www.w3.org/2000/svg">
<path opacity="0.819" fill-rule="evenodd" clip-rule="evenodd" d="M8.03516 1.74219C6.02 1.74219 4.16438 2.41363 2.63672 3.57422C1.83959 4.17981 1.39742 4.88899 1.20508 5.47461C1.01274 6.06022 1.07422 6.64062 1.07422 6.64062L1.0625 6.47266V13.0273C1.06272 13.3536 1.19243 13.6665 1.42314 13.8972C1.65385 14.1279 1.9667 14.2576 2.29297 14.2578H5.30078C5.62705 14.2576 5.9399 14.1279 6.17061 13.8972C6.40132 13.6665 6.53103 13.3536 6.53125 13.0273V6.56445C6.53191 6.55166 6.56086 6.20821 6.75 5.87695C6.97704 5.47931 6.97305 5.2832 8.03516 5.2832C8.56867 5.2832 8.79858 5.38374 8.92383 5.46289C9.04907 5.54204 9.12015 5.62975 9.22266 5.82422C9.38579 6.13372 9.4082 6.49023 9.4082 6.49023V13.0273C9.40842 13.3536 9.53813 13.6665 9.76884 13.8972C9.99955 14.1279 10.3124 14.2576 10.6387 14.2578H13.7129C14.0392 14.2576 14.352 14.1279 14.5827 13.8972C14.8134 13.6665 14.9431 13.3536 14.9434 13.0273V6.48633C14.9434 6.48307 14.9434 6.47981 14.9434 6.47656C14.9434 6.47656 14.9079 5.95247 14.6875 5.4707C14.4671 4.98893 14.064 4.40601 13.3789 3.81445C11.9811 2.60758 10.1249 1.74219 8.03516 1.74219Z" fill="white"/>
</svg>
